resources/images/ams_rfid_1.svg

<svg width="30" height="30" xmlns="http://www.w3.org/2000/svg" fill="none">
 <defs>
  <clipPath id="clip0_7112_29437">
   <rect id="svg_1" fill="white" height="30" width="30"/>
  </clipPath>
 </defs>
 <g>
  <title>Layer 1</title>
  <g id="svg_2" clip-path="url(#clip0_7112_29437)">
   <path id="svg_3" stroke="black" d="m31.1539,-1.15234l-32.30771,0l0,32.30764l32.30771,0l0,-32.30764z"/>
   <path id="svg_4" fill="#6B6B6B" d="m22.7973,22.759l1.6843,1.6843c0.1549,0.1549 0.0602,0.42 -0.1577,0.4418l-5.6079,0.5617c-0.1632,0.0164 -0.3005,-0.1209 -0.2842,-0.2841l0.5617,-5.608c0.0219,-0.2178 0.287,-0.3124 0.4419,-0.1576l1.7709,1.771c1.2133,-1.2209 2.0398,-2.7726 2.3756,-4.461c0.3377,-1.6974 0.1644,-3.4567 -0.4979,-5.0556c-0.6623,-1.5989 -1.7838,-2.96544 -3.2227,-3.92691c-1.439,-0.96147 -3.1307,-1.47465 -4.8613,-1.47465c-1.7306,0 -3.4223,0.51318 -4.8613,1.47465c-1.43891,0.96147 -2.56043,2.32801 -3.2227,3.92691c-0.66227,1.5989 -0.83555,3.3582 -0.49793,5.0556c0.33762,1.6973 1.17099,3.2564 2.3947,4.4801l-0.53028,0.5303l-0.53038,0.5304l-0.53028,0.5303c-0.35619,-0.3562 -0.68608,-0.735 -0.98801,-1.1333c-1.0021,-1.3221 -1.69629,-2.8592 -2.02245,-4.4989c-0.42444,-2.1338 -0.2066,-4.3455 0.62596,-6.3555c0.83256,-2.01001 2.24246,-3.72797 4.0514,-4.93667c1.80897,-1.20869 3.93567,-1.85383 6.11127,-1.85383c2.1756,0 4.3023,0.64514 6.1113,1.85383c1.8089,1.2087 3.2188,2.92666 4.0514,4.93667c0.8325,2.01 1.0504,4.2217 0.6259,6.3555c-0.3261,1.6397 -1.0203,3.1768 -2.0224,4.4989c-0.2965,0.3912 -0.62,0.7635 -0.9689,1.1141z" clip-rule="evenodd" fill-rule="evenodd"/>
  </g>
 </g>
</svg>

<svg width="30" height="30" viewBox="0 0 30 30" fill="none" xmlns="http://www.w3.org/2000/svg">
<g clip-path="url(#clip0_10670_19466)">
<mask id="mask0_10670_19466" style="mask-type:luminance" maskUnits="userSpaceOnUse" x="0" y="0" width="30" height="30">
<path d="M30 0H0V30H30V0Z" fill="white"/>
</mask>
<g mask="url(#mask0_10670_19466)">
<path d="M31.1534 -1.15234H-1.1543V31.1553H31.1534V-1.15234Z" stroke="black"/>
<path fill-rule="evenodd" clip-rule="evenodd" d="M22.7973 22.759L24.4816 24.4433C24.6365 24.5982 24.5418 24.8633 24.3239 24.8851L18.716 25.4468C18.5528 25.4632 18.4155 25.3259 18.4318 25.1627L18.9935 19.5547C19.0154 19.3369 19.2805 19.2423 19.4354 19.3971L21.2063 21.1681C22.4196 19.9472 23.2461 18.3955 23.5819 16.7071C23.9196 15.0097 23.7463 13.2504 23.084 11.6515C22.4217 10.0526 21.3002 8.68606 19.8613 7.72459C18.4223 6.76312 16.7306 6.24994 15 6.24994C13.2694 6.24994 11.5777 6.76312 10.1387 7.72459C8.69979 8.68606 7.57827 10.0526 6.916 11.6515C6.25373 13.2504 6.08045 15.0097 6.41807 16.7071C6.75569 18.4044 7.58906 19.9635 8.81277 21.1872L8.28249 21.7175L7.75211 22.2479L7.22183 22.7782C6.86564 22.422 6.53575 22.0432 6.23382 21.6449C5.23172 20.3228 4.53753 18.7857 4.21137 17.146C3.78693 15.0122 4.00477 12.8005 4.83733 10.7905C5.66989 8.78049 7.07979 7.06253 8.88873 5.85383C10.6977 4.64514 12.8244 4 15 4C17.1756 4 19.3023 4.64514 21.1113 5.85383C22.9202 7.06253 24.3301 8.78049 25.1627 10.7905C25.9952 12.8005 26.2131 15.0122 25.7886 17.146C25.4625 18.7857 24.7683 20.3228 23.7662 21.6449C23.4697 22.0361 23.1462 22.4084 22.7973 22.759Z" fill="#6B6B6B"/>
</g>
</g>
<defs>
<clipPath id="clip0_10670_19466">
<rect width="30" height="30" fill="white"/>
</clipPath>
</defs>
</svg>
